src/assets-svg/overviewicon.svg

<svg width="19" height="18" viewBox="0 0 19 18" fill="none" xmlns="http://www.w3.org/2000/svg">
<path d="M1.04635 10H7.32448C7.60199 10 7.86813 9.89464 8.06436 9.70711C8.26059 9.51957 8.37083 9.26522 8.37083 9V1C8.37083 0.734784 8.26059 0.48043 8.06436 0.292893C7.86813 0.105357 7.60199 0 7.32448 0H1.04635C0.768844 0 0.502699 0.105357 0.30647 0.292893C0.110241 0.48043 0 0.734784 0 1V9C0 9.26522 0.110241 9.51957 0.30647 9.70711C0.502699 9.89464 0.768844 10 1.04635 10ZM0 17C0 17.2652 0.110241 17.5196 0.30647 17.7071C0.502699 17.8946 0.768844 18 1.04635 18H7.32448C7.60199 18 7.86813 17.8946 8.06436 17.7071C8.26059 17.5196 8.37083 17.2652 8.37083 17V13C8.37083 12.7348 8.26059 12.4804 8.06436 12.2929C7.86813 12.1054 7.60199 12 7.32448 12H1.04635C0.768844 12 0.502699 12.1054 0.30647 12.2929C0.110241 12.4804 0 12.7348 0 13V17ZM10.4635 17C10.4635 17.2652 10.5738 17.5196 10.77 17.7071C10.9662 17.8946 11.2324 18 11.5099 18H17.788C18.0655 18 18.3317 17.8946 18.5279 17.7071C18.7241 17.5196 18.8344 17.2652 18.8344 17V10C18.8344 9.73478 18.7241 9.48043 18.5279 9.29289C18.3317 9.10536 18.0655 9 17.788 9H11.5099C11.2324 9 10.9662 9.10536 10.77 9.29289C10.5738 9.48043 10.4635 9.73478 10.4635 10V17ZM11.5099 7H17.788C18.0655 7 18.3317 6.89464 18.5279 6.70711C18.7241 6.51957 18.8344 6.26522 18.8344 6V1C18.8344 0.734784 18.7241 0.48043 18.5279 0.292893C18.3317 0.105357 18.0655 0 17.788 0H11.5099C11.2324 0 10.9662 0.105357 10.77 0.292893C10.5738 0.48043 10.4635 0.734784 10.4635 1V6C10.4635 6.26522 10.5738 6.51957 10.77 6.70711C10.9662 6.89464 11.2324 7 11.5099 7Z" fill="white"/>
</svg>

<svg width="19" height="18" fill="none" xmlns="http://www.w3.org/2000/svg"><path d="M1.046 10h6.278c.278 0 .544-.105.74-.293A.978.978 0 0 0 8.371 9V1c0-.265-.11-.52-.307-.707A1.071 1.071 0 0 0 7.324 0H1.046C.77 0 .503.105.306.293A.978.978 0 0 0 0 1v8c0 .265.11.52.306.707.197.188.463.293.74.293ZM0 17c0 .265.11.52.306.707.197.188.463.293.74.293h6.278c.278 0 .544-.105.74-.293A.978.978 0 0 0 8.371 17v-4c0-.265-.11-.52-.307-.707a1.072 1.072 0 0 0-.74-.293H1.046c-.277 0-.543.105-.74.293A.978.978 0 0 0 0 13v4Zm10.463 0c0 .265.11.52.307.707.196.188.462.293.74.293h6.278c.277 0 .544-.105.74-.293a.978.978 0 0 0 .306-.707v-7c0-.265-.11-.52-.306-.707a1.072 1.072 0 0 0-.74-.293H11.51c-.278 0-.544.105-.74.293a.978.978 0 0 0-.306.707v7ZM11.51 7h6.278c.277 0 .544-.105.74-.293A.978.978 0 0 0 18.834 6V1c0-.265-.11-.52-.306-.707a1.071 1.071 0 0 0-.74-.293H11.51c-.278 0-.544.105-.74.293a.978.978 0 0 0-.306.707v5c0 .265.11.52.306.707.196.188.462.293.74.293Z" fill="#fff"/></svg>
